packages/icons/svgs/duotone/Source=ranking.svg

<svg width="24" height="24" viewBox="0 0 24 24" fill="none" xmlns="http://www.w3.org/2000/svg">
<g opacity="0.5">
<path fill-rule="evenodd" clip-rule="evenodd" d="M22.5547 2.16795C23.0142 2.4743 23.1384 3.09517 22.8321 3.5547L16.8321 12.5547C16.6818 12.78 16.4467 12.9348 16.1803 12.9836C15.9139 13.0324 15.6391 12.9711 15.4188 12.8137L9.37107 8.49395L6.89443 13.4472C6.64744 13.9412 6.04677 14.1414 5.55279 13.8944C5.05881 13.6474 4.85859 13.0468 5.10558 12.5528L8.10558 6.55279C8.23637 6.2912 8.47512 6.09999 8.75895 6.02949C9.04279 5.95899 9.34326 6.01628 9.58124 6.18627L15.7408 10.586L21.168 2.4453C21.4743 1.98577 22.0952 1.8616 22.5547 2.16795Z" fill="black" style="fill:black;fill-opacity:1;"/>
<path fill-rule="evenodd" clip-rule="evenodd" d="M4.69322 15.6136C5.1872 15.8606 5.38742 16.4612 5.14043 16.9552L2.89443 21.4472C2.64744 21.9412 2.04677 22.1414 1.55279 21.8944C1.05881 21.6474 0.858589 21.0468 1.10558 20.5528L3.35158 16.0608C3.59857 15.5668 4.19924 15.3666 4.69322 15.6136Z" fill="black" style="fill:black;fill-opacity:1;"/>
</g>
<path fill-rule="evenodd" clip-rule="evenodd" d="M1 13C1 12.4477 1.44772 12 2 12H6C6.15525 12 6.30836 12.0361 6.44721 12.1056L15.9282 16.846L21.4453 13.1679C21.9048 12.8616 22.5257 12.9858 22.8321 13.4453C23.1384 13.9048 23.0142 14.5257 22.5547 14.8321L16.5547 18.8321C16.2561 19.0311 15.8738 19.0549 15.5528 18.8944L5.76393 14H2C1.44772 14 1 13.5523 1 13Z" fill="black" style="fill:black;fill-opacity:1;"/>
</svg>

<svg xmlns="http://www.w3.org/2000/svg" width="24" height="24" viewBox="0 0 24 24"><path fill-rule="evenodd" d="M22.555 2.168a1 1 0 0 1 .277 1.387l-6 9a1 1 0 0 1-1.413.259L9.37 8.494l-2.477 4.953a1 1 0 1 1-1.788-.894l3-6a1 1 0 0 1 1.475-.367l6.16 4.4 5.427-8.14a1 1 0 0 1 1.387-.278M4.693 15.614a1 1 0 0 1 .447 1.341l-2.246 4.492a1 1 0 1 1-1.788-.894l2.246-4.492a1 1 0 0 1 1.341-.447" clip-rule="evenodd" opacity=".55"/><path fill-rule="evenodd" d="M1 13a1 1 0 0 1 1-1h4c.155 0 .308.036.447.106l9.481 4.74 5.517-3.678a1 1 0 0 1 1.11 1.664l-6 4a1 1 0 0 1-1.002.062L5.763 14H2a1 1 0 0 1-1-1" clip-rule="evenodd"/></svg>
